Resources/Icons/PCGEx_Editor_To_Center.svg

<?xml version="1.0" encoding="UTF-8"?>
<svg id="icons" xmlns="http://www.w3.org/2000/svg" viewBox="0 0 100 100">
  <defs>
    <style>
      .cls-1 {
        fill: #fff;
      }

      .cls-2 {
        fill: #4d8dfc;
      }
    </style>
  </defs>
  <rect x="20.58" y="33.07" width="58.85" height="33.86"/>
  <path class="cls-2" d="M79.42,68.43H20.58c-.83,0-1.5-.67-1.5-1.5v-33.86c0-.83.67-1.5,1.5-1.5h58.85c.83,0,1.5.67,1.5,1.5v33.86c0,.83-.67,1.5-1.5,1.5ZM22.08,65.43h55.85v-30.86H22.08v30.86Z"/>
  <path d="M50,65.59c-.66,0-1.3-.26-1.77-.73l-13.09-13.09c-.98-.98-.98-2.56,0-3.54l13.09-13.09c.47-.47,1.1-.73,1.77-.73h0c.66,0,1.3.26,1.77.73l13.09,13.09c.98.98.98,2.56,0,3.54l-13.09,13.09c-.47.47-1.1.73-1.77.73ZM40.44,50l9.56,9.56,9.55-9.56-9.55-9.56-9.56,9.56Z"/>
  <rect class="cls-1" x="40.74" y="40.74" width="18.51" height="18.51" transform="translate(-20.71 50) rotate(-45)"/>
</svg>

<svg id="icons" xmlns="http://www.w3.org/2000/svg" viewBox="0 0 100 100">
    <defs>
        <style>.cls-1{fill:#4d8dfc;}.cls-2{fill:#fff;}</style>
    </defs>
    <rect x="20.58" y="33.07" width="58.85" height="33.86"/>
    <path class="cls-1"
          d="M79.42,68.43H20.58a1.5,1.5,0,0,1-1.5-1.5V33.07a1.5,1.5,0,0,1,1.5-1.5H79.42a1.5,1.5,0,0,1,1.5,1.5V66.93A1.5,1.5,0,0,1,79.42,68.43Zm-57.34-3H77.92V34.57H22.08Z"/>
    <path d="M50,65.59a2.51,2.51,0,0,1-1.77-.73L35.14,51.77a2.52,2.52,0,0,1,0-3.54L48.23,35.14A2.51,2.51,0,0,1,50,34.41h0a2.51,2.51,0,0,1,1.77.73L64.86,48.23a2.52,2.52,0,0,1,0,3.54L51.77,64.86A2.51,2.51,0,0,1,50,65.59ZM40.44,50,50,59.56,59.55,50,50,40.44Z"/>
    <rect class="cls-2" x="40.74" y="40.74" width="18.51" height="18.51" transform="translate(-20.71 50) rotate(-45)"/>
</svg>
